field/character/pix/icon.svg

<?xml version="1.0" encoding="UTF-8" standalone="no"?>
<!-- Generator: Adobe Illustrator 16.0.0, SVG Export Plug-In . SVG Version: 6.00 Build 0)  -->

<svg
   xmlns:dc="http://purl.org/dc/elements/1.1/"
   xmlns:cc="http://creativecommons.org/ns#"
   xmlns:rdf="http://www.w3.org/1999/02/22-rdf-syntax-ns#"
   xmlns:svg="http://www.w3.org/2000/svg"
   xmlns="http://www.w3.org/2000/svg"
   xmlns:sodipodi="http://sodipodi.sourceforge.net/DTD/sodipodi-0.dtd"
   xmlns:inkscape="http://www.inkscape.org/namespaces/inkscape"
   version="1.1"
   id="Layer_5"
   x="0px"
   y="0px"
   width="16"
   height="16"
   viewBox="0 0 16 16"
   enable-background="new 0 0 100 100"
   xml:space="preserve"
   inkscape:version="0.48.2 r9819"
   sodipodi:docname="icon.svg"><metadata
   id="metadata9"><rdf:RDF><cc:Work
       rdf:about=""><dc:format>image/svg+xml</dc:format><dc:type
         rdf:resource="http://purl.org/dc/dcmitype/StillImage" /></cc:Work></rdf:RDF></metadata><defs
   id="defs7" /><sodipodi:namedview
   pagecolor="#ffffff"
   bordercolor="#666666"
   borderopacity="1"
   objecttolerance="10"
   gridtolerance="10"
   guidetolerance="10"
   inkscape:pageopacity="0"
   inkscape:pageshadow="2"
   inkscape:window-width="1122"
   inkscape:window-height="1006"
   id="namedview5"
   showgrid="false"
   inkscape:zoom="50.4375"
   inkscape:cx="8"
   inkscape:cy="7.8116481"
   inkscape:window-x="0"
   inkscape:window-y="0"
   inkscape:window-maximized="0"
   inkscape:current-layer="Layer_5" />
<path
   d="m 0.23323952,4.5876473 0,5.8885907 15.59749148,0 0,-5.8885907 z M 1.2009924,9.508 l 1.53e-5,-3.952 13.6620003,0 -1.5e-5,3.952 c -3.486095,0 -9.4184587,0 -13.6620006,0 z m 1.8240768,-0.480772 -1.1807529,0 0,-0.3053153 0.3915363,0 0,-2.379748 -0.3915363,0 0,-0.3053176 1.1807529,0 0,0.3053176 -0.3915362,0 0,2.3799399 0.3915362,0 z"
   id="path3"
   inkscape:connector-curvature="0"
   sodipodi:nodetypes="ccccccccccccccccccccccc" />
</svg>

<?xml version="1.0" encoding="UTF-8" standalone="no"?>
<!-- Generator: Adobe Illustrator 16.0.0, SVG Export Plug-In . SVG Version: 6.00 Build 0)  -->

<svg
   xmlns:dc="http://purl.org/dc/elements/1.1/"
   xmlns:cc="http://creativecommons.org/ns#"
   xmlns:rdf="http://www.w3.org/1999/02/22-rdf-syntax-ns#"
   xmlns:svg="http://www.w3.org/2000/svg"
   xmlns="http://www.w3.org/2000/svg"
   xmlns:sodipodi="http://sodipodi.sourceforge.net/DTD/sodipodi-0.dtd"
   xmlns:inkscape="http://www.inkscape.org/namespaces/inkscape"
   version="1.1"
   id="Layer_5"
   x="0px"
   y="0px"
   width="16"
   height="16"
   viewBox="0 0 16 16"
   enable-background="new 0 0 100 100"
   xml:space="preserve"
   inkscape:version="0.48.2 r9819"
   sodipodi:docname="text69.svg"><metadata
   id="metadata9"><rdf:RDF><cc:Work
       rdf:about=""><dc:format>image/svg+xml</dc:format><dc:type
         rdf:resource="http://purl.org/dc/dcmitype/StillImage" /></cc:Work></rdf:RDF></metadata><defs
   id="defs7" /><sodipodi:namedview
   pagecolor="#ffffff"
   bordercolor="#666666"
   borderopacity="1"
   objecttolerance="10"
   gridtolerance="10"
   guidetolerance="10"
   inkscape:pageopacity="0"
   inkscape:pageshadow="2"
   inkscape:window-width="1122"
   inkscape:window-height="1006"
   id="namedview5"
   showgrid="false"
   inkscape:zoom="50.4375"
   inkscape:cx="8"
   inkscape:cy="8"
   inkscape:window-x="0"
   inkscape:window-y="0"
   inkscape:window-maximized="0"
   inkscape:current-layer="Layer_5" />
<path
   d="M 0.23323952,4.5876473 V 10.476238 H 15.830731 V 4.5876473 H 0.23323952 z M 15.062443,9.708145 H 1.0013333 V 5.3557405 H 15.062636 V 9.708145 z M 3.0250692,9.027228 H 1.8443163 V 8.7219127 H 2.2358526 V 6.3421647 H 1.8443163 V 6.0368471 H 3.0250692 V 6.3421647 H 2.633533 V 8.7221046 H 3.0250692 V 9.027228 z"
   id="path3"
   inkscape:connector-curvature="0" />
</svg>
